X: 193
M: C|
L: 1/8
K: A
V: 1
E |\
f/g/ |\
aAaA aA eA | aAgA fAeA | f>bd>B c>ac>A | B<FB>A G<BB>e |
c/B/A eA aAeA | f>dB>f e>cA>e | d>ec>d B>cAE | F>AG>B cAA |]
V: 2 clef=bass middle=d
z |\
a2a2 a2a2 | a2a2 a2a2 | g2e2 a2a2 | d2^d2 e2=d2 |
c2B2 A2A2 | A2A2 a2a2 | f2e2 d2c2 | d2e2 a2A |]
z |\
a2a2 a3=g | f2e2 d2c2 | B2G2 A2a2 | d2^d2 e2e2 |
a2a2 c2c2 | d2d2 c2c2 | f2e2 d2c2 d2e2 a2A |]


